packages/axiom-materials/src/icon_svgs/information-circle.svg

<svg height="16" viewBox="0 0 16 16" width="16" xmlns="http://www.w3.org/2000/svg"><path d="m15 8c0-3.866-3.134-7-7-7s-7 3.134-7 7 3.134 7 7 7 7-3.134 7-7m1 0c0 4.418-3.582 8-8 8s-8-3.582-8-8 3.582-8 8-8 8 3.582 8 8zm-9.80000019-1.19999981v.72h.9v3.58000001h-.9v.9h3.6v-.9h-.9v-4.30000001zm2.70000029-1.77500009c0-.48282888-.39217113-.875-.875-.875-.48282888 0-.875.39217112-.875.875 0 .48282887.39217112.875.875.875.48282887 0 .875-.39217113.875-.875z" fill-rule="evenodd"/></svg>

<?xml version="1.0" encoding="UTF-8"?>
<svg width="16px" height="16px" viewBox="0 0 16 16" version="1.1" xmlns="http://www.w3.org/2000/svg" xmlns:xlink="http://www.w3.org/1999/xlink">
    <!-- Generator: sketchtool 43.2 (39069) - http://www.bohemiancoding.com/sketch -->
    <title>information-circle</title>
    <desc>Created with sketchtool.</desc>
    <defs></defs>
    <g id="Page-1" stroke="none" stroke-width="1" fill="none" fill-rule="evenodd">
        <g id="information-circle" fill="#000000">
            <path d="M15,8 C15,4.134 11.866,1 8,1 C4.134,1 1,4.134 1,8 C1,11.866 4.134,15 8,15 C11.866,15 15,11.866 15,8 M16,8 C16,12.418 12.418,16 8,16 C3.582,16 0,12.418 0,8 C0,3.582 3.582,0 8,0 C12.418,0 16,3.582 16,8 Z M6.19999981,6.80000019 L6.19999981,7.52000019 L7.09999981,7.52000019 L7.09999981,11.1000002 L6.19999981,11.1000002 L6.19999981,12.0000002 L9.79999981,12.0000002 L9.79999981,11.1000002 L8.89999981,11.1000002 L8.89999981,6.80000019 L6.19999981,6.80000019 Z M8.9000001,5.0250001 C8.9000001,4.54217122 8.50782897,4.1500001 8.0250001,4.1500001 C7.54217122,4.1500001 7.1500001,4.54217122 7.1500001,5.0250001 C7.1500001,5.50782897 7.54217122,5.9000001 8.0250001,5.9000001 C8.50782897,5.9000001 8.9000001,5.50782897 8.9000001,5.0250001 Z" id="Info-Popup-Circle"></path>
        </g>
    </g>
</svg>
